!!!OTL: Die Schreiber (Studenten)
!!!ARE: Europa, Mitteleuropa, Deutschland
!!!SCT: A0457
!!!YEM: Copyright 1995, estate of Helmut Schaffrath.
**kern
*ICvox
*Ivox
!! Mixed meters:  4/2; 6/2
*M4/2
*k[]
*C:
{2c
=1
2c
2c
2e
2c
=2
2g
2g}
{1cc
=3
*M6/2
1b
2g
1a
2g
=4
*M4/2
1e
2r}
{2c
=5
2g
2a
2b
2g
=6
1cc
1b}
=7
{2a
1g
2e
=8
*M6/2
2f
2d
1c
2r}
{2c
=9
*M4/2
2g
2g
2f
2e
=10
1f
1e}
=11
{1c
=12
*M6/2
1e
2a
1g
2f
=13
*M4/2
1d}
{1a
=14
2g
2g
2f
2e
=15
1c
1e}
=16
{1a
=17
*M6/2
1g
2e
2f
1d
=18
1.c}
==
!!!AGN: Romanze, Ballade, Lied
!! Rotenbucher Bergkreyen 1551 Bo. 21.
!!!ONB: ESAC (Essen Associative Code) Database: ALTDEU
!!!AMT: irregular
!!!AIN: vox
!!!EED: Helmut Schaffrath
!!!EEV: 1.0
*-
